X:1030
T:Craig's Pipes
R:reel
M:C|
K:G
|B3 B2 AGA|B2GB AGED|B3B2 AGB|AGBG AGED|
|B3 B2 AGA|B2dB AGEG|Beed BddB|AGBG AGEG||
|DG ~G2 DGBG|DGBG AGEG|DGGF GABc|dBAc BGGE|
|DG ~G2 DGBG|DGBG AGEG|DGGF GABc|dBAc BGGB||
|d2 Bd efge|~d2 BG AGEG|d2Bd efge|~a2bg ageg|
|d2 Bd efge|~d2 BG AGEG|d2Bd efge|~a2bg aged||
